X: 1
T:Jim Coleman's
M:C|
L:1/8
C:Jim Coleman's
R:Reel
K:Ador
 BAeA BAeA | BAED ~G3A | BAeA  BAef  | gedB BA Az |
 BAeA BAeA | BAED ~G3B | A2 AF G2 ef | gedB BA (3Bcd ||
 ez zg agef | gedB G2 B/2c/2d | e ~a3 a2 ba | gedB BA A2 |
 a2 ab agef | gedB G2 B/2c/2d | e~A3 f~A3 | gedB BA A2 ||
